X:54
T:Hora Diminetii
O:rumania
C:Roemenie
M:6/8
L:1/8
Q:1/4=80
K:Dm
V:1
d3/2 A/d/A/d3/2 A/d/A/|d3/2 A/d/A/d3/2 c/B/A/|"A" ^G3/2 A/B/A/~^G3/2 F/E/F/|1 "Dm" D3/2 E/F/^G/~A3 :|2
"Dm" Dz A,D2 z|| |:"Gm" G BG G3/2 B/A/G/|"Dm" F AF F3/2 A/G/F/|"A" E GE E3/2 G/F/E/|
|1 "Dm" D3/2 E/F/G/A2 "D7" z:|2 fine"Dm" D3/2 A,/B,/^C/D2 z|| |:"Dm" D3/2 F/F/E/"C" E3/2 G/G/F/|"Bb" F3/2 A/A/G/"Gm" G3/2 B/B/A/|
"A" A3/2 B/G/A/"A7" F3/2 G/E/F/|1 "Dm" D3/2 E/F/G/"A7" A3 :|2 "Dm" Dz A,D3 ||
V:2          %2e stem
f2 ff2 f|f2 ff3/2 a/^g/f/|~e3/2 f/^g/f/~e3/2 d/^c/d/|1 A3/2 ^c/d/e/~f2 z:|2
F3/2 F/G/A/F2 z|| |:d gd d3/2 g/f/e/|d fd d3/2 f/e/d/|^c/ d/e3/2 ^c/f/e/d/ d/^c/A/|
|1 A3/2 ^c/d/e/f2 z:|2 fineF3/2 F/G/A/F2 z|| |:A3/2 d/d/c/c3/2 e/e/d/|d3/2 f/f/e/e3/2 g/g/f/|
f3/2 g/e/f/d3/2 e/^c/B/|1 A3/2 ^c/d/e/f3 :|2 F3/2 F/G/A/F3 ||





